X: 407
T: Bir Pesendîde Edâ
C: Ahmet Avni Konuk
O: Turkey
F: http://compmusic.upf.edu/node/140
N: pesendide--kupe--devrirevanihindi----ahmet_avni_konuk
N: makam= pesendide
N: form= kupe
N: usul= devrirevanihindi = 14/8
M: 14/8
L: 1/16
K: C _1/4B ^f  
Q: 1/4=102
%%MIDI tuningsystem comma53
d4 d2^c2 d2e2 ^3/4f2g2 =f2e2 eddc d2z2  | \
w:  Bir  Pe sen *  *  *  dî  | 
ggg2 a2a2 _b2a2 g2g2 a2g2 g=ffe d2z2  | 
w:  de  *  *  e dâ  *  *  *  i  | 
d4 d2^c2 d2e2 {=f}e{f}dd2 c2d2 c2=B2 A4  | \
w:  le  gö rün *  *  *  *  *  *  dü   | 
=B^cB2 c2d4e2 =f2e2 d2c2 d6z2  | 
w:  dil *  *  *  *  be *  rim    | 
d4 e2^3/4f8f2 ^3/4e2f2 agfe f4  | \
w:  Nâ zı na  sabr_  | 
d2d2 e2e2 g2^3/4f2 .e2e2 d2^c2 edcd =B4  | 
w:  ey *  le yen  *  *  *  Uş  | 
=B4 e2d2 c2_2/4B2 A2BA G2^3/4F2 G4 c2z2  | \
w:  şâ ka  aşk  *  *  *  ol  | 
_2/4B4 G2Ac BAAG G^3/4FG2 F2AG G6z2  | 
w:  sun  *  *  *  *  *  de *  *  *  rim    | 
|


